**kern	**silbe
*ICvox	*
*C:	*
*M4/4	*
*clefG2	*
r;	.
=1	=1
1r	.
=2	=2
1r	.
=3	=3
1r	.
=4	=4
1r	.
=5	=5
8b	john-
8a	-ny
8b	is
8a	a
4b	jo-
4dd	-ker
=6	=6
2.r	.
8r	.
8a	a
=7	=7
8b	ve-
8a	-ry
8b	fun-
8a	-ny
4b	jo-
4dd	-ker
=8	=8
2.r	.
8r	.
8g-	but
=9	=9
8a-	when
8b	he
8b	jokes
8a-	my
4dd-	ho-
4b	-ney
=10	=10
2.r	.
8r	.
8g-	his
=11	=11
8a-	jo-
8b	-kin'
8b	ain't
8a-	so
4dd-	fun-
4b	-ny
=12	=12
1r	.
=13	=13
8dd-	john-
8dd-	-ny
8dd-	is
8dd-	a
8dd-	jo-
8dd-	-ker
8dd-	that's
8dd-	a-
=14	=14
8dd	-try'in-
8dd	to
8dd	steal
8dd	my
8dd	ba-
8dd	-by
4r	.
=15	=15
1r	.
=16	=16
1r	.
=17	=17
8b	John-
8a	-ny
8b	sings
8a	a
4b	love
4dd	song
=18	=18
1r	.
=19	=19
8b	sings
8a	the
8b	sweet-
8a	-est
4b	love
4dd	song
=20	=20
2.r	.
8r	.
8g-	but
=21	=21
8a-	when
8b	he
8b	sings
8a-	to
4dd-	my
4b	gal
=22	=22
2.r	.
8r	.
8g-	to
=23	=23
8a-	me
8b	he's
8b	just
8a-	a
4dd-	wolf
4b	dog
=24	=24
1r	.
=25	=25
8dd-	john-
8dd-	-ny
8dd-	wants
8dd-	to
8dd-	fly
8dd-	a-
8dd-	-way
8dd-	and
=26	=26
8dd	pup-
8dd	-py
8dd	love
8dd	my
8dd	ba-
8dd	-by
4r	.
=27	=27
1r	.
=28	=28
1r	.
=29	=29
4dd	hey
4dd	bird
4b	dog
8b	get
8b	a-
=30	=30
8b	-way
8b	from
8b	my
8dd	quail
2r	.
=31	=31
4dd	hey
4dd	bird
8.b	dog
[16a	you're
8a]	_
[8b	on
=32	=32
8b]	_
8a	the
4b	wrong
4b	trail
4r	.
=33	=33
8b	bird
4dd-	dog
8b	you
8dd-	bet-
8b	-ter
8dd-	leave
8b	my
=34	=34
8r	.
8dd	love-
8r	.
8b	-y
4dd-	dove
4b	a-
=35	=35
1ee-	-lone
=36	=36
1r	.
=37	=37
4dd	hey
4dd	bird
4b	dog
8b	get
8b	a-
=38	=38
8b	-way
8b	from
8b	my
8dd	chick
2r	.
=39	=39
4dd	hey
4dd	bird
8b	dog
8a	you
8b	bet-
8a	-ter
=40	=40
8b	get
8a	a-
8b	-way
8b	quick
2r	.
=41	=41
8dd-	bird
8dd-	dog
8r	.
8b	you
8dd-	bet-
8b	-ter
8dd-	find
8b	a
=42	=42
8dd	chick-
8dd	-en
8dd	lit-
8dd	-tle
4b	of
4a	your
=43	=43
2b	own
2r	.
=44	=44
1r	.
=45	=45
1r	.
=46	=46
1r	.
=47	=47
8b	John-
8a	-ny
8b	kissed
8a	the
4b	teach-
4dd	-er
=48	=48
2.r	.
8r	.
8a	he
=49	=49
8b	tip-
8a	-toed
8b	up
8a	to
4b	reach
4dd	her
=50	=50
2.r	.
8r	.
8g-	well
=51	=51
8a-	he's
8b	the
8b	teach-
8a-	-er's
4dd-	pet
4b	now
=52	=52
2.r	.
8r	.
8g-	what
=53	=53
8a-	he
8b	wants
8b	he
8a-	can
4dd-	get
4b	now
=54	=54
2.r	.
8r	.
8dd-	he
=55	=55
8dd-	ev-
8dd-	-en
8dd-	made
8dd-	the
8dd-	teach-
8dd-	-er
8dd-	let
8dd-	him
=56	=56
8dd	sit
8dd	next
8dd	to
8dd	my
8dd	ba-
8dd	-by
4r	.
=57	=57
1r	.
=58	=58
1r	.
=59	=59
4dd	hey
4dd	bird
4b	dog
8b	het
8b	a-
=60	=60
8b	-way
8b	from
8b	my
8dd	quail
2r	.
=61	=61
4dd	hey
4dd	bird
8.b	dog
[16a	you're
8a]	_
[8b	on
=62	=62
8b]	_
8a	the
4b	wrong
4b	trail
4r	.
=63	=63
8b	bird
4dd-	dog
8b	you
8dd-	bet-
8b	-ter
8dd-	leave
8b	my
=64	=64
8r	.
8dd	love-
8r	.
8b	-y
4dd-	dove
4b	a-
=65	=65
1ee-	-lone
=66	=66
1r	.
=67	=67
4dd	hey
4dd	bird
4b	dog
8b	get
8b	a-
=68	=68
8b	-way
8b	from
8b	my
8dd	chick
2r	.
=69	=69
4dd	hey
4dd	bird
8b	dog
8a	you
8b	bet-
8a	-ter
=70	=70
8b	get
8a	a-
8b	-way
8b	quick
2r	.
=71	=71
8dd-	bird
8dd-	dog
8r	.
8b	you
8dd-	bet-
8b	-ter
8dd-	find
8b	a
=72	=72
8dd	chick-
8dd	-en
8dd	lit-
8dd	-tle
4b	of
4a	your
=73	=73
2b	own
2r	.
=74	=74
1r	.
=75	=75
1r	.
=76	=76
1r	.
=77	=77
1r	.
=78	=78
1r	.
=79	=79
1r	.
r;	.
r;	.
*-	*-
!!!ENC: Nathaniel Condit-Schultz
!!!MBID: cf8916fa-9d25-4789-a7d1-fd9ae8015af8
